source/img/header-logotype-desktop.svg

<svg width="102" height="84" viewBox="0 0 102 84" fill="none" xmlns="http://www.w3.org/2000/svg">
<path d="M1.19995 0.7L50.8 59.1L100.1 1.1L1.19995 0.7Z" fill="#23A9E1"/>
<path d="M79.9999 17.3C74.8999 17.3 69.8999 17.4 64.7999 17.4C70.7999 10.5 73.4999 11.2 79.9999 17.3Z" fill="white"/>
<path d="M38.8 22.7C47.7 22.7 56.6 22.7 65.5 22.7C63.5 21.5 58.8 15.6 56.2 17.8C56 18 48.7 8.9 43.9 13.3C39.7 17.1 37.8 12.8 33 15.8C27.7 19.4 36.2 21.5 38.8 22.7Z" fill="white"/>
<path d="M51.0999 0H0.199951V22.5L50.8 84L51.0999 83.6L101.8 23.2V0H51.0999ZM12.9 1.8H18.4V19L12.9 12.5V1.8ZM12.0999 11.6L7.09995 5.7V1.8H12.0999V11.6ZM31.4 8.9L25.6999 1.8H31.4V8.9ZM24.8 12.7L19.2 1.8H24.8V12.7ZM19.0999 3.4L24.5999 14.1C21.7999 16.2 19.8999 18.1 19.0999 19V3.4ZM25.5999 2.9L31.1999 9.8C30.0999 10.4 28.9999 11.1 28.0999 11.7C27.1999 12.3 26.3999 12.9 25.5999 13.5V2.9ZM32.1999 2.7L37 6.9C35.2999 7.6 33.6999 8.4 32.1999 9.2V2.7ZM37.8 6.6L32.4 1.8H38.4V6.4C38.1 6.4 38 6.5 37.8 6.6ZM56.9 1.8H61.9L56.9 4.2V1.8ZM51.0999 1.8H55.5L51.0999 3.9V1.8ZM50.1999 3.8L46 1.8H50.1999V3.8ZM44.6999 4.3L39.5999 1.8H44.6999V4.3ZM39.0999 2.4L43.8 4.7C42.2 5.1 40.5999 5.5 39.0999 6V2.4ZM45.5 2.4L48.9 4C47.7 4.1 46.6 4.2 45.4 4.4V2.4H45.5ZM55.9 2.5V4.4C54.8 4.2 53.7 4.1 52.5 4L55.9 2.5ZM62.4 2.4V6.1C60.9 5.6 59.2999 5.1 57.5999 4.7L62.4 2.4ZM63.0999 1.8H69L63.5999 6.6C63.3999 6.5 63.2999 6.5 63.0999 6.4V1.8ZM76.7 1.8H82.3L76.7 12.7V1.8ZM70.0999 1.8H75.8L70.0999 8.8V1.8ZM69.3 2.7V9.2C67.8 8.4 66.2 7.6 64.5 6.9L69.3 2.7ZM75.8999 2.9V13.4C75.2 12.9 74.3999 12.4 73.5999 11.8C72.5999 11.1 71.3999 10.4 70.2 9.7L75.8999 2.9ZM82.3 3.4V18.6C81.2 17.6 79.4 15.9 76.8 14L82.3 3.4ZM83.0999 19.4V1.8H88.6V13.2L83.0999 19.4C83.1999 19.5 83.0999 19.5 83.0999 19.4ZM89.3999 1.8H94.3999V6.5L89.3999 12.3V1.8ZM6.39995 1.8V4.7L3.89995 1.8H6.39995ZM19.2 20L19.2999 20.1C19.2999 20.1 22.9 16.2 28.5 12.5C33.7999 9 41.8 4.9 50.8 5C59.7 5 67.8999 9.2 73.0999 12.7C78.6999 16.4 82.4 20.2 82.5 20.3L78.5999 24.8C71.6999 25.7 66.7 30.9 60 29.8C56.5999 29.2 56.5 27.3 55.5 25.3C54.7999 23.8 53.5999 24 52 23.4C50.5999 22.8 49.7 21.7 46.8 22.3C44.3 22.9 44 26.8 40.8 26.6C39.1 26.5 39 24.1 36.5999 21.1C30.2999 13.5 24.4 14.6 20.4 21.6L50.6999 57.5L19.2 20ZM95.1 5.5V1.8H98.3L95.1 5.5Z" fill="#491213"/>
<path d="M46.7 70.9L50.8 64.4L54.8 70.9L50.8 77.4L46.7 70.9Z" fill="#23A9E1"/>
<path d="M23.4999 32.3C23.9999 32.9 24.3999 33.6 24.2999 34.4C24.1999 35 23.3999 36 23.9999 36.2C24.6999 35.3 25.4999 34.3 26.1999 33.4C25.5999 33.2 20.7999 27.6 20.7999 26.9C19.6999 27.5 18.6999 28.1 17.5999 28.6C17.7999 29.3 18.8999 28.6 19.4999 28.6C20.2999 28.7 20.8999 29.2 21.4999 29.8C19.7999 31.2 15.5999 34.8 15.0999 34.9C14.8999 34.9 13.9999 34.3 13.9999 34.8C13.9999 35.1 14.8999 35.8 14.9999 36C15.6999 36.9 16.4999 37.8 17.1999 38.7C17.7999 38.4 17.0999 38 17.3999 37.5C17.6999 37.1 22.2999 33.2 23.4999 32.3Z" fill="white"/>
<path d="M18.1999 25.3C18.5999 25.2 18.7999 25.7 19.1999 25.2C18.3999 24.2 17.5999 23.3 16.7999 22.3C16.3999 21.9 15.9999 21.4 16.0999 22.3C16.1999 22.9 9.99988 28 9.59988 28.1C9.09988 28.3 8.79988 27.7 8.49988 28.2C9.19988 29.1 9.99988 29.9 10.6999 30.8C10.8999 31.1 11.1999 31.4 11.3999 31.7C11.6999 32 11.5999 31 11.5999 31.1C11.4999 30.6 12.0999 30.2 12.4999 29.9C13.9999 28.6 17.7999 25.3 18.1999 25.3Z" fill="white"/>
<path d="M9.39994 24.4C7.59994 24.9 5.69994 24.2 5.19994 22.4C4.69994 20.6 5.79993 18.6 7.29993 17.6C8.69993 16.6 10.8999 16.6 11.6999 18.4C11.9999 19.2 11.8999 20.1 11.5999 20.9C11.3999 21.4 10.9999 21.9 11.6999 22.2C12.5999 21.1 13.3999 20 14.2999 18.9C13.1999 18.3 12.7999 17.2 11.9999 16.3C11.0999 15.2 9.89993 14.2 8.49993 14C5.59993 13.6 2.89994 16.6 2.69994 19.2C2.59994 20.7 3.09994 22 3.89994 23.2C4.69994 24.2 5.79993 24.8 6.29993 26C6.59993 26.1 8.99993 25 9.59993 24.7C9.49993 24.6 9.49994 24.5 9.39994 24.4C8.69994 24.6 9.39994 24.4 9.39994 24.4Z" fill="white"/>
<path d="M48.6999 60.8C47.4999 60 44.6999 56.1 44.0999 55.5C43.9999 55.4 43.8999 55.2 43.7999 55.1C43.7999 55.1 43.4999 55.3 43.5999 55.3C43.3999 55.4 43.6999 55.9 43.4999 56.2C42.6999 57.4 37.6999 61.2 37.4999 61.4C36.8999 61.8 36.2999 61.2 35.9999 61.7C36.6999 62.6 38.7999 65.2 38.9999 65.3C39.4999 65.4 39.0999 64.5 39.1999 64.3C39.2999 63.9 41.7999 61.9 42.6999 61.1C42.9999 60.8 43.3999 61.5 43.5999 61.8C43.8999 62.3 44.0999 62.8 43.8999 63.4C43.7999 63.8 43.1999 64.3 43.5999 64.6C44.1999 63.9 45.9999 61.8 46.1999 61.6C46.4999 61.3 45.5999 61.6 45.6999 61.5C45.2999 61.7 44.9999 61.7 44.5999 61.5C44.4999 61.4 43.4999 60.4 43.5999 60.3C43.9999 59.9 44.5999 59.3 45.0999 59.2C45.9999 59 46.6999 60.7 46.7999 61.3C46.8999 61.9 46.8999 62.5 46.6999 63.1C46.5999 63.5 46.1999 63.8 46.6999 64C47.3999 63 48.0999 62.1 48.7999 61.1C48.9999 60.9 48.7999 60.8 48.6999 60.8C48.5999 60.7 48.8999 60.8 48.6999 60.8Z" fill="white"/>
<path d="M38.5 56.6C40.7 54.7 41 51.5 39.3 49.3C37.4 46.8 33.9 46.2 31.5 48.2C29.3 50.1 28.9999 53.2 30.6999 55.5C32.6999 58.2 35.9 58.5 38.5 56.6C39.7 55.7 38.4 56.7 38.5 56.6ZM38 51.9C37.4 53.4 35.8 55 34.3 55.6C32.5 56.3 31.2 54.8 31.9 53C32.6 51.5 34.1 49.9 35.6 49.3C37.5 48.6 38.7 50.2 38 51.9C37.6 52.8 38.1 51.7 38 51.9Z" fill="white"/>
<path d="M32.0999 42C32.5999 42.1 33 42.5 33.4 42C32.7 41.1 31.8999 40.2 31.1999 39.4C30.5999 39.7 31.2 39.9 31 40.4C30.8 40.8 28.4 41.2 27.8 41.3C28 40.7 28.7 38.7 29 38.5C29.5 38.1 29.9 38.9 30.3 38.4C29.4 37.3 28.4999 36.2 27.5999 35.1C27.2999 34.7 26.9999 34.1 26.5999 34.4C26.5999 34.4 26.6 35.9 26.5 36.1C26.4 36.3 25.5999 39.7 24.5999 40.6C24.0999 41 22.4 42.5 21.9 42.7C21.4 42.9 21.1 42.1 20.7 42.7C21.5 43.7 22.3999 44.7 23.1999 45.7C23.2999 45.8 23.8 46.6 24 46.6C24.5 46.7 24.0999 45.7 24.0999 45.5C24.2999 45.1 26.5999 42.8 27.5999 42.6C28.7999 42.4 30.5999 41.9 32.0999 42C32.3999 42.1 31.6999 42 32.0999 42Z" fill="white"/>
<path d="M25.8 22.9C21.8 22.7 23.4 18.9 26.2 18.1C28.8 17.3 34.3 19.8 36 21.5C33.2 22.4 29.6 22.2 26.6 22.4C26.4 19.2 25.6 20.3 25.8 22.9Z" fill="#DC6243"/>
<path d="M35.3 35.4C26.7 35.3 32.5 22.1 35.4 22.9C38.8 24 38.4 35.5 35.3 35.4Z" fill="#DC6243"/>
<path d="M41.4 31.1C40.6 33.6 39 34.1 39.2 31C39.4 27.5 41.7 28.3 44.1 27C46.1 25.9 47.2 21.8 50.7 24.2C52.3 25.3 54.1 24.4 54.6 26C54.6 25.9 50.1 36.3 52.6 36.3C47.6 36.3 49.8 30.4 51.7 26.4C49.9 27.3 46.9 33.1 49.3 34C48 35.7 44.1 37.9 42.1 36.3C40.6 35.2 41.4 33.1 41.4 31.1Z" fill="#DC6243"/>
<path d="M45.5 40.7C42 41.7 37.4 39.5 43 38.4C46.5 37.7 50.2 39.1 45.5 40.7C45.6 40.7 45.4 40.7 45.5 40.7Z" fill="#DC6243"/>
<path d="M49.9 40.6C49.2 38.9 50.5 37 52.6 38.4C54.4 39.6 51.7 41.5 49.9 40.6Z" fill="#DC6243"/>
<path d="M46.8999 45.2C44.4999 44.5 36.3999 44.6 41.6999 42.4C43.3999 41.8 51.8999 42.6 46.8999 45.2Z" fill="#DC6243"/>
<path d="M57.3999 48.5C55.9999 47.3 54.4999 47.2 53.1999 48.5C51.3999 45.2 44.8999 46.3 41.7999 45.8C43.3999 49.9 56.5999 50.7 57.3999 48.5Z" fill="#DC6243"/>
<path d="M55.4999 51C52.2999 50.9 48.7999 50.4 45.8999 51.1C47.7999 51.6 52.2999 52.9 48.0999 54C49.5999 56.2 52.0999 56 53.6999 54.1C52.9999 53.8 52.6999 53.4 52.0999 53C53.6999 52.7 55.2999 51.8 55.4999 51Z" fill="#DC6243"/>
<path d="M59.0999 47.1C53.7999 44 55.0999 41.7 59.4999 39.5C61.7999 38.4 66.7999 34.3 68.8999 35.6C65.5999 39.5 62.2999 43.3 59.0999 47.1Z" fill="#DC6243"/>
<path d="M55.2999 39.8C50.7999 35.2 61.9999 35.6 63.7999 34C65.0999 34.4 74.5999 25.7 76.8999 26.3C75.1999 28.2 71.6999 34.4 69.0999 34.4C67.0999 34.4 65.0999 34.1 63.5999 35.5C61.3999 37.6 57.6999 38.6 55.2999 39.8Z" fill="#F49774"/>
<path d="M56.7999 34.2C54.2999 35.5 51.9999 30.3 56.2999 30.8C59.0999 31.1 61.9999 30.6 64.5999 31C62.5999 33.3 59.8999 34.6 56.7999 34.2Z" fill="#F4B1A4"/>
<path d="M69.3999 52.5C69.5999 53.1 69.6999 53.8 69.5999 54.5C69.4999 55.4 68.5999 57.4 67.3999 56.8C66.1999 56.2 65.1999 55.1 64.1999 54.2C64.9999 53.3 65.6999 52.5 67.0999 52.9C67.4999 53 67.7999 52.9 67.3999 52.6C66.9999 52.4 64.2999 50.6 64.0999 50.8C63.7999 51.1 64.5999 51.7 64.2999 52.3C64.0999 52.7 63.6999 53.1 63.3999 53.5C62.6999 52.9 61.4999 52.2 62.2999 51.2C62.7999 50.5 63.5999 50 64.3999 49.9C64.9999 49.8 66.1999 50.3 66.3999 49.7C65.2999 49.2 64.1999 48.7 63.0999 48.1C63.2999 48.9 59.7999 52.6 58.9999 53.6C58.8999 53.7 58.2999 54.2 58.2999 54.4C58.2999 54.8 58.8999 54.5 58.9999 54.5C59.4999 54.3 65.7999 59.6 65.9999 60C66.0999 60.3 65.7999 60.6 65.9999 60.7C65.9999 60.7 66.1999 60.9 66.2999 60.9C66.6999 60.4 70.7999 54.9 71.6999 54.7C70.8999 53.5 70.0999 52.3 69.2999 51C68.6999 51.3 69.2999 52 69.3999 52.5Z" fill="white"/>
<path d="M63.1999 59.2C61.0999 57.9 57.5999 60.5 57.0999 60.7C56.0999 61.2 55.2999 60.2 55.7999 59.2C56.2999 58.4 57.1999 58 58.0999 57.9C58.3999 57.9 59.3999 58.1 59.5999 57.9C59.6999 57.7 59.7999 57.7 59.5999 57.6C58.6999 57 57.8999 56.4 56.9999 55.9C56.7999 57 55.5999 57.6 54.8999 58.3C54.0999 59.2 53.3999 60.2 53.3999 61.5C53.3999 62.6 54.0999 63.6 55.0999 64.2C56.1999 64.8 57.3999 64.3 58.3999 63.7C58.9999 63.3 59.6999 62.8 60.2999 62.5C61.2999 62 62.5999 62.4 62.2999 63.8C61.9999 64.9 60.8999 65.9 59.8999 66.1C59.2999 66.3 58.5999 66.2 57.9999 66C57.5999 65.9 56.9999 65.3 56.7999 65.9C57.9999 66.7 59.0999 67.6 60.2999 68.4C60.3999 67.6 60.7999 67.3 61.3999 66.8C62.0999 66.2 62.7999 65.5 63.3999 64.7C64.5999 63 64.9999 60.6 63.1999 59.2Z" fill="white"/>
<path d="M63.1999 59.2C64.1999 59.8 62.5999 58.7 63.1999 59.2V59.2Z" fill="white"/>
<path d="M99.8999 19.6C99.1999 20.3 91.4999 17.3 90.8999 16.8C90.5999 16.7 90.5999 15.5 90.1999 16C89.7999 16.5 89.3999 17 88.9999 17.5C88.5999 18 88.1999 18.5 87.6999 19C87.3999 19.3 87.1999 19.5 87.6999 19.7C88.4999 19.3 93.0999 27 92.6999 28.2C91.9999 28.6 85.7999 23.1 85.5999 22.8C85.4999 22.7 85.8999 21.8 85.3999 21.9C85.1999 21.9 84.6999 22.8 84.4999 23C84.1999 23.4 83.8999 23.7 83.5999 24.1C83.8999 24.6 84.0999 24.1 84.5999 24.1C84.9999 24.2 86.3999 25.4 86.7999 25.8C86.0999 25.8 84.0999 25.9 83.8999 25.9C82.9999 26 83.4999 25.2 82.8999 25C82.0999 25.9 81.3999 26.8 80.5999 27.8C80.1999 28.3 79.6999 28.9 79.2999 29.4C79.1999 29.5 79.2999 29.4 79.2999 29.5C79.5999 29.8 79.3999 29.7 79.8999 29.5C80.3999 29.3 86.4999 34.4 86.6999 34.7C87.0999 35.1 86.4999 35.7 87.0999 35.9C87.6999 35.2 88.2999 34.4 88.8999 33.7C88.9999 33.6 88.9999 33.6 88.8999 33.5C88.4999 33.1 88.3999 33.7 87.8999 33.7C87.3999 33.6 83.4999 30.3 81.9999 29.1C83.7999 29 89.2999 28.8 90.1999 28.8C90.4999 28.8 91.2999 29.7 91.2999 30C91.1999 30.4 90.7999 30.6 91.3999 30.8C91.8999 30.2 92.3999 29.7 92.8999 29.1L93.0999 28.8C93.1999 28.7 93.1999 28.7 93.2999 28.5L93.4999 28.3C93.8999 27.8 95.2999 26.3 95.0999 26.2C94.5999 25.8 94.3999 26.7 93.7999 26.1C93.4999 25.9 92.5999 24.3 92.3999 23.9C92.0999 23.5 92.9999 23 93.3999 22.8C94.1999 22.3 96.5999 21.6 96.8999 23.1C96.8999 23.4 96.5999 23.6 96.7999 23.8C96.7999 23.8 96.9999 24 97.0999 24C97.2999 23.8 99.4999 21.2 100.4 20C100.1 19.8 99.9999 19.7 99.8999 19.6ZM92.4999 21.8C92.5999 21.8 92.6999 21.7 92.4999 21.8C92.1999 22 91.7999 22.3 91.4999 22.6C90.9999 21.7 90.4999 20.8 89.8999 19.9C91.0999 20.4 92.2999 20.9 93.3999 21.4C93.1999 21.5 92.8999 21.6 92.4999 21.8Z" fill="white"/>
<path d="M82.7999 33C80.3999 31 77.1999 31.6 75.1999 33.8C73.2999 36.1 73.4999 39.5 75.7999 41.4C78.0999 43.3 81.4999 42.8 83.3999 40.6C85.2999 38.3 85.1999 34.9 82.7999 33ZM82.4999 39.6C82.4999 39.6 82.4999 39.7 82.4999 39.6C81.1999 40.9 79.0999 39.7 77.9999 38.9C76.8999 38.1 74.8999 36.3 76.0999 34.8C77.1999 33.5 79.1999 34.6 80.2999 35.3C81.4999 36.1 83.6999 37.9 82.5999 39.5C82.6999 39.4 82.6999 39.4 82.4999 39.6Z" fill="white"/>
<path d="M82.7999 33C83.9999 34 82.4999 32.8 82.7999 33V33Z" fill="white"/>
<path d="M82.4999 39.7C82.4999 39.6 82.4999 39.6 82.4999 39.7C82.5999 39.6 82.5999 39.6 82.5999 39.6C82.4999 39.6 82.4999 39.7 82.4999 39.7Z" fill="white"/>
<path d="M76.2 42.1C76.3 42.2 76.5 42.4 76.2 42.1C73.3 39.9 69.9 40.5 67.7 43.2C66.7 44.4 65.7 45.6 64.7 46.8C65.1 47.3 65.5 46.7 66 47C66.4 47.3 72.2 52.1 72.3 52.4C72.5 52.9 72 52.9 72.4 53.3C72.6 53.4 76.9 48.1 77.3 47.1C78.2 45.3 77.6 43.4 76.2 42.1ZM74.9 48.9C74.7 49.2 74.9 49 74.2 49.6C73.9 49.9 67.8 44.9 68 44.7C68.8 43.8 70.6 43.1 71.6 43.4C73.8 43.9 76.8 46.6 74.9 48.9Z" fill="white"/>
</svg>

<svg width="102" height="84" viewBox="0 0 102 84" fill="none" xmlns="http://www.w3.org/2000/svg">
  <path d="M1.2.7l49.6 58.4 49.3-58L1.2.7z" fill="#23A9E1"/>
  <path d="M80 17.3c-5.1 0-10.1.1-15.2.1 6-6.9 8.7-6.2 15.2-.1zM38.8 22.7h26.7c-2-1.2-6.7-7.1-9.3-4.9-.2.2-7.5-8.9-12.3-4.5-4.2 3.8-6.1-.5-10.9 2.5-5.3 3.6 3.2 5.7 5.8 6.9z" fill="#fff"/>
  <path d="M51.1 0H.2v22.5L50.8 84l.3-.4 50.7-60.4V0H51.1zM12.9 1.8h5.5V19l-5.5-6.5V1.8zm-.8 9.8l-5-5.9V1.8h5v9.8zm19.3-2.7l-5.7-7.1h5.7v7.1zm-6.6 3.8L19.2 1.8h5.6v10.9zm-5.7-9.3l5.5 10.7c-2.8 2.1-4.7 4-5.5 4.9V3.4zm6.5-.5l5.6 6.9a42.13 42.13 0 00-5.6 3.7V2.9zm6.6-.2L37 6.9c-1.7.7-3.3 1.5-4.8 2.3V2.7zm5.6 3.9l-5.4-4.8h6v4.6c-.3 0-.4.1-.6.2zm19.1-4.8h5l-5 2.4V1.8zm-5.8 0h4.4l-4.4 2.1V1.8zm-.9 2l-4.2-2h4.2v2zm-5.5.5l-5.1-2.5h5.1v2.5zm-5.6-1.9l4.7 2.3c-1.6.4-3.2.8-4.7 1.3V2.4zm6.4 0L48.9 4c-1.2.1-2.3.2-3.5.4v-2h.1zm10.4.1v1.9c-1.1-.2-2.2-.3-3.4-.4l3.4-1.5zm6.5-.1v3.7c-1.5-.5-3.1-1-4.8-1.4l4.8-2.3zm.7-.6H69l-5.4 4.8c-.2-.1-.3-.1-.5-.2V1.8zm13.6 0h5.6l-5.6 10.9V1.8zm-6.6 0h5.7l-5.7 7v-7zm-.8.9v6.5c-1.5-.8-3.1-1.6-4.8-2.3l4.8-4.2zm6.6.2v10.5c-.7-.5-1.5-1-2.3-1.6-1-.7-2.2-1.4-3.4-2.1l5.7-6.8zm6.4.5v15.2c-1.1-1-2.9-2.7-5.5-4.6l5.5-10.6zm.8 16V1.8h5.5v11.4l-5.5 6.2c.1.1 0 .1 0 0zm6.3-17.6h5v4.7l-5 5.8V1.8zm-83 0v2.9L3.9 1.8h2.5zM19.2 20l.1.1s3.6-3.9 9.2-7.6C33.8 9 41.8 4.9 50.8 5c8.9 0 17.1 4.2 22.3 7.7 5.6 3.7 9.3 7.5 9.4 7.6l-3.9 4.5c-6.9.9-11.9 6.1-18.6 5-3.4-.6-3.5-2.5-4.5-4.5-.7-1.5-1.9-1.3-3.5-1.9-1.4-.6-2.3-1.7-5.2-1.1-2.5.6-2.8 4.5-6 4.3-1.7-.1-1.8-2.5-4.2-5.5-6.3-7.6-12.2-6.5-16.2.5l30.3 35.9L19.2 20zM95.1 5.5V1.8h3.2l-3.2 3.7z" fill="#491213"/>
  <path d="M46.7 70.9l4.1-6.5 4 6.5-4 6.5-4.1-6.5z" fill="#23A9E1"/>
  <path d="M23.5 32.3c.5.6.9 1.3.8 2.1-.1.6-.9 1.6-.3 1.8l2.2-2.8c-.6-.2-5.4-5.8-5.4-6.5-1.1.6-2.1 1.2-3.2 1.7.2.7 1.3 0 1.9 0 .8.1 1.4.6 2 1.2-1.7 1.4-5.9 5-6.4 5.1-.2 0-1.1-.6-1.1-.1 0 .3.9 1 1 1.2.7.9 1.5 1.8 2.2 2.7.6-.3-.1-.7.2-1.2.3-.4 4.9-4.3 6.1-5.2zM18.2 25.3c.4-.1.6.4 1-.1-.8-1-1.6-1.9-2.4-2.9-.4-.4-.8-.9-.7 0 .1.6-6.1 5.7-6.5 5.8-.5.2-.8-.4-1.1.1.7.9 1.5 1.7 2.2 2.6.2.3.5.6.7.9.3.3.2-.7.2-.6-.1-.5.5-.9.9-1.2 1.5-1.3 5.3-4.6 5.7-4.6zM9.4 24.4c-1.8.5-3.7-.2-4.2-2s.6-3.8 2.1-4.8c1.4-1 3.6-1 4.4.8.3.8.2 1.7-.1 2.5-.2.5-.6 1 .1 1.3.9-1.1 1.7-2.2 2.6-3.3-1.1-.6-1.5-1.7-2.3-2.6-.9-1.1-2.1-2.1-3.5-2.3-2.9-.4-5.6 2.6-5.8 5.2-.1 1.5.4 2.8 1.2 4 .8 1 1.9 1.6 2.4 2.8.3.1 2.7-1 3.3-1.3-.1-.1-.1-.2-.2-.3-.7.2 0 0 0 0zM48.7 60.8c-1.2-.8-4-4.7-4.6-5.3-.1-.1-.2-.3-.3-.4 0 0-.3.2-.2.2-.2.1.1.6-.1.9-.8 1.2-5.8 5-6 5.2-.6.4-1.2-.2-1.5.3.7.9 2.8 3.5 3 3.6.5.1.1-.8.2-1 .1-.4 2.6-2.4 3.5-3.2.3-.3.7.4.9.7.3.5.5 1 .3 1.6-.1.4-.7.9-.3 1.2.6-.7 2.4-2.8 2.6-3 .3-.3-.6 0-.5-.1-.4.2-.7.2-1.1 0-.1-.1-1.1-1.1-1-1.2.4-.4 1-1 1.5-1.1.9-.2 1.6 1.5 1.7 2.1.1.6.1 1.2-.1 1.8-.1.4-.5.7 0 .9.7-1 1.4-1.9 2.1-2.9.2-.2 0-.3-.1-.3-.1-.1.2 0 0 0zM38.5 56.6c2.2-1.9 2.5-5.1.8-7.3-1.9-2.5-5.4-3.1-7.8-1.1-2.2 1.9-2.5 5-.8 7.3 2 2.7 5.2 3 7.8 1.1 1.2-.9-.1.1 0 0zm-.5-4.7a7.4 7.4 0 01-3.7 3.7c-1.8.7-3.1-.8-2.4-2.6.7-1.5 2.2-3.1 3.7-3.7 1.9-.7 3.1.9 2.4 2.6-.4.9.1-.2 0 0zM32.1 42c.5.1.9.5 1.3 0-.7-.9-1.5-1.8-2.2-2.6-.6.3 0 .5-.2 1-.2.4-2.6.8-3.2.9.2-.6.9-2.6 1.2-2.8.5-.4.9.4 1.3-.1l-2.7-3.3c-.3-.4-.6-1-1-.7 0 0 0 1.5-.1 1.7-.1.2-.9 3.6-1.9 4.5-.5.4-2.2 1.9-2.7 2.1-.5.2-.8-.6-1.2 0 .8 1 1.7 2 2.5 3 .1.1.6.9.8.9.5.1.1-.9.1-1.1.2-.4 2.5-2.7 3.5-2.9 1.2-.2 3-.7 4.5-.6.3.1-.4 0 0 0z" fill="#fff"/>
  <path d="M25.8 22.9c-4-.2-2.4-4 .4-4.8 2.6-.8 8.1 1.7 9.8 3.4-2.8.9-6.4.7-9.4.9-.2-3.2-1-2.1-.8.5zM35.3 35.4c-8.6-.1-2.8-13.3.1-12.5 3.4 1.1 3 12.6-.1 12.5zM41.4 31.1c-.8 2.5-2.4 3-2.2-.1.2-3.5 2.5-2.7 4.9-4 2-1.1 3.1-5.2 6.6-2.8 1.6 1.1 3.4.2 3.9 1.8 0-.1-4.5 10.3-2 10.3-5 0-2.8-5.9-.9-9.9-1.8.9-4.8 6.7-2.4 7.6-1.3 1.7-5.2 3.9-7.2 2.3-1.5-1.1-.7-3.2-.7-5.2zM45.5 40.7c-3.5 1-8.1-1.2-2.5-2.3 3.5-.7 7.2.7 2.5 2.3.1 0-.1 0 0 0zM49.9 40.6c-.7-1.7.6-3.6 2.7-2.2 1.8 1.2-.9 3.1-2.7 2.2zM46.9 45.2c-2.4-.7-10.5-.6-5.2-2.8 1.7-.6 10.2.2 5.2 2.8zM57.4 48.5c-1.4-1.2-2.9-1.3-4.2 0-1.8-3.3-8.3-2.2-11.4-2.7 1.6 4.1 14.8 4.9 15.6 2.7zM55.5 51c-3.2-.1-6.7-.6-9.6.1 1.9.5 6.4 1.8 2.2 2.9 1.5 2.2 4 2 5.6.1-.7-.3-1-.7-1.6-1.1 1.6-.3 3.2-1.2 3.4-2zM59.1 47.1c-5.3-3.1-4-5.4.4-7.6 2.3-1.1 7.3-5.2 9.4-3.9-3.3 3.9-6.6 7.7-9.8 11.5z" fill="#DC6243"/>
  <path d="M55.3 39.8c-4.5-4.6 6.7-4.2 8.5-5.8 1.3.4 10.8-8.3 13.1-7.7-1.7 1.9-5.2 8.1-7.8 8.1-2 0-4-.3-5.5 1.1-2.2 2.1-5.9 3.1-8.3 4.3z" fill="#F49774"/>
  <path d="M56.8 34.2c-2.5 1.3-4.8-3.9-.5-3.4 2.8.3 5.7-.2 8.3.2-2 2.3-4.7 3.6-7.8 3.2z" fill="#F4B1A4"/>
  <path d="M69.4 52.5c.2.6.3 1.3.2 2-.1.9-1 2.9-2.2 2.3-1.2-.6-2.2-1.7-3.2-2.6.8-.9 1.5-1.7 2.9-1.3.4.1.7 0 .3-.3-.4-.2-3.1-2-3.3-1.8-.3.3.5.9.2 1.5-.2.4-.6.8-.9 1.2-.7-.6-1.9-1.3-1.1-2.3.5-.7 1.3-1.2 2.1-1.3.6-.1 1.8.4 2-.2-1.1-.5-2.2-1-3.3-1.6.2.8-3.3 4.5-4.1 5.5-.1.1-.7.6-.7.8 0 .4.6.1.7.1.5-.2 6.8 5.1 7 5.5.1.3-.2.6 0 .7 0 0 .2.2.3.2.4-.5 4.5-6 5.4-6.2-.8-1.2-1.6-2.4-2.4-3.7-.6.3 0 1 .1 1.5zM63.2 59.2c-2.1-1.3-5.6 1.3-6.1 1.5-1 .5-1.8-.5-1.3-1.5.5-.8 1.4-1.2 2.3-1.3.3 0 1.3.2 1.5 0 .1-.2.2-.2 0-.3-.9-.6-1.7-1.2-2.6-1.7-.2 1.1-1.4 1.7-2.1 2.4-.8.9-1.5 1.9-1.5 3.2 0 1.1.7 2.1 1.7 2.7 1.1.6 2.3.1 3.3-.5.6-.4 1.3-.9 1.9-1.2 1-.5 2.3-.1 2 1.3-.3 1.1-1.4 2.1-2.4 2.3-.6.2-1.3.1-1.9-.1-.4-.1-1-.7-1.2-.1 1.2.8 2.3 1.7 3.5 2.5.1-.8.5-1.1 1.1-1.6.7-.6 1.4-1.3 2-2.1 1.2-1.7 1.6-4.1-.2-5.5zM63.2 59.2c1 .6-.6-.5 0 0zM99.9 19.6c-.7.7-8.4-2.3-9-2.8-.3-.1-.3-1.3-.7-.8L89 17.5c-.4.5-.8 1-1.3 1.5-.3.3-.5.5 0 .7.8-.4 5.4 7.3 5 8.5-.7.4-6.9-5.1-7.1-5.4-.1-.1.3-1-.2-.9-.2 0-.7.9-.9 1.1-.3.4-.6.7-.9 1.1.3.5.5 0 1 0 .4.1 1.8 1.3 2.2 1.7-.7 0-2.7.1-2.9.1-.9.1-.4-.7-1-.9-.8.9-1.5 1.8-2.3 2.8l-1.3 1.6c-.1.1 0 0 0 .1.3.3.1.2.6 0s6.6 4.9 6.8 5.2c.4.4-.2 1 .4 1.2.6-.7 1.2-1.5 1.8-2.2.1-.1.1-.1 0-.2-.4-.4-.5.2-1 .2-.5-.1-4.4-3.4-5.9-4.6 1.8-.1 7.3-.3 8.2-.3.3 0 1.1.9 1.1 1.2-.1.4-.5.6.1.8.5-.6 1-1.1 1.5-1.7l.2-.3c.1-.1.1-.1.2-.3l.2-.2c.4-.5 1.8-2 1.6-2.1-.5-.4-.7.5-1.3-.1-.3-.2-1.2-1.8-1.4-2.2-.3-.4.6-.9 1-1.1.8-.5 3.2-1.2 3.5.3 0 .3-.3.5-.1.7 0 0 .2.2.3.2.2-.2 2.4-2.8 3.3-4-.3-.2-.4-.3-.5-.4zm-7.4 2.2c.1 0 .2-.1 0 0a7 7 0 00-1 .8c-.5-.9-1-1.8-1.6-2.7 1.2.5 2.4 1 3.5 1.5-.2.1-.5.2-.9.4zM82.8 33c-2.4-2-5.6-1.4-7.6.8-1.9 2.3-1.7 5.7.6 7.6 2.3 1.9 5.7 1.4 7.6-.8 1.9-2.3 1.8-5.7-.6-7.6zm-.3 6.6s0 .1 0 0c-1.3 1.3-3.4.1-4.5-.7-1.1-.8-3.1-2.6-1.9-4.1 1.1-1.3 3.1-.2 4.2.5 1.2.8 3.4 2.6 2.3 4.2l-.1.1z" fill="#fff"/>
  <path d="M82.8 33c1.2 1-.3-.2 0 0zM82.5 39.7c0-.1 0-.1 0 0l.1-.1c-.1 0-.1.1-.1.1zM76.2 42.1c.1.1.3.3 0 0-2.9-2.2-6.3-1.6-8.5 1.1l-3 3.6c.4.5.8-.1 1.3.2.4.3 6.2 5.1 6.3 5.4.2.5-.3.5.1.9.2.1 4.5-5.2 4.9-6.2.9-1.8.3-3.7-1.1-5zm-1.3 6.8c-.2.3 0 .1-.7.7-.3.3-6.4-4.7-6.2-4.9.8-.9 2.6-1.6 3.6-1.3 2.2.5 5.2 3.2 3.3 5.5z" fill="#fff"/>
</svg>
